src/images/icon/icon_success.svg

<svg fill="none" height="150" viewBox="0 0 280 150" width="280" xmlns="http://www.w3.org/2000/svg" xmlns:xlink="http://www.w3.org/1999/xlink"><linearGradient id="a"><stop offset="0" stop-color="#dfe7ee"/><stop offset="1" stop-color="#eff4f9" stop-opacity=".01"/></linearGradient><linearGradient id="b" gradientUnits="userSpaceOnUse" x1="203.698" x2="199.37" xlink:href="#a" y1="104.635" y2="120.319"/><linearGradient id="c" gradientUnits="userSpaceOnUse" x1="46.6092" x2="62.7397" xlink:href="#a" y1="99.3416" y2="129.404"/><linearGradient id="d" gradientUnits="userSpaceOnUse" x1="226.115" x2="216.053" xlink:href="#a" y1="103.687" y2="122.341"/><linearGradient id="e" gradientUnits="userSpaceOnUse" x1="96.8283" x2="96.8283" xlink:href="#a" y1="112" y2="149.083"/><linearGradient id="f" gradientUnits="userSpaceOnUse" x1="112.5" x2="112.5" y1="113" y2="124"><stop offset="0" stop-color="#dfe7ee"/><stop offset="1" stop-color="#dfe7ee"/></linearGradient><linearGradient id="g" gradientUnits="userSpaceOnUse" x1="146.721" x2="170.425" y1="98.7065" y2="127.743"><stop offset="0" stop-color="#81e3bb"/><stop offset="1" stop-color="#4ac285"/></linearGradient><linearGradient id="h" gradientUnits="userSpaceOnUse" x1="48.837" x2="48.837" xlink:href="#a" y1="12" y2="33.2241"/><linearGradient id="i" gradientUnits="userSpaceOnUse" x1="103.804" x2="103.804" xlink:href="#a" y1="0" y2="25.2455"/><mask height="150" maskUnits="userSpaceOnUse" width="280" x="0" y="0"><path d="m0 0h280v150h-280z" fill="#fff"/></mask><mask id="j" height="98" maskUnits="userSpaceOnUse" width="82" x="106" y="26"><path clip-rule="evenodd" d="m120 26c-7.732 0-14 6.268-14 14v84h54c7.732 0 14-6.268 14-14v-67c0-3.866 3.134-7 7-7s7 3.134 7 7v-3c0-7.732-6.268-14-14-14z" fill="#fff" fill-rule="evenodd"/></mask><g clip-rule="evenodd" fill-rule="evenodd"><path d="m213.798 86.2703c1.659-6.1518 8.16-8.1829 8.16-8.1829s-3.253 8.6377-1.134 11.4937c2.119 2.8561 2.489 5.7057 1.844 8.9835-.646 3.2784-6.606 7.8924-6.606 7.8924 8.523 3.557-4.001 15.937-4.001 15.937s-3.665.214-7.904-.028c.469-2.461 1.358-6.194 3.042-11.377 3.438-10.581 6.947-17.2168 6.947-17.2168s-12.017 17.3098-15.104 28.0488c-4.382-.739-8.057-2.263-7.534-5.33.929-5.454 3.375-7.109 6.271-9.068.916-.62 1.877-1.271 2.85-2.082 2.389-1.992 2.307-4.468 2.229-6.8027-.053-1.6192-.105-3.171.671-4.4477.758-1.246 2.285-1.7626 3.951-2.3264 2.504-.847 5.322-1.8004 6.318-5.4939z" fill="url(#b)"/><path d="m60.7585 122.393s-10.8519 0-13.9902-9.708c-3.1383-9.707-.7629-9.707 0-9.707s7.3119 10.393 9.2652 9.707c1.9533-.685-5.1816-13.5971-5.1816-23.0792s3.7747-15.5923 7.8534-16.4385 9.9663 3.7379 9.9663 17.911c0 8.7704 1.8992 9.7327 3.2319 8.8409 1.5468-1.0357 3.608-13.0829 8.8238-13.0829 6.8666 0 12.7682 10.5261 10.3553 27.9497-1.6601 3.737-30.3241 7.607-30.3241 7.607z" fill="url(#c)"/><path d="m240.526 101.568c-2.308-1.33-4.828-1.242-8.607 1.118-3.778 2.36-10.181 8.396-13.793 20.71l15.137 4.385s2.725-7.173 7.263-13.196c4.539-6.024 2.309-11.686 0-13.017z" fill="url(#d)"/></g><ellipse cx="140" cy="179" fill="url(#e)" rx="156" ry="67"/><path clip-rule="evenodd" d="m120 26c-7.732 0-14 6.268-14 14v84h54c7.732 0 14-6.268 14-14v-67c0-3.866 3.134-7 7-7s7 3.134 7 7v-3c0-7.732-6.268-14-14-14z" fill="#f4f8fc" fill-rule="evenodd"/><g fill="#e0e9f2" mask="url(#j)"><path clip-rule="evenodd" d="m132 47c0-1.1046.895-2 2-2h29c1.105 0 2 .8954 2 2s-.895 2-2 2h-29c-1.105 0-2-.8954-2-2z" fill-rule="evenodd"/><circle cx="120" cy="47" r="5"/><circle cx="120" cy="65" r="5"/><circle cx="120" cy="83" opacity=".75" r="5"/><g clip-rule="evenodd" fill-rule="evenodd"><path d="m132 65c0-1.1046.895-2 2-2h29c1.105 0 2 .8954 2 2s-.895 2-2 2h-29c-1.105 0-2-.8954-2-2z"/><path d="m132 83c0-1.1046.895-2 2-2h13c1.105 0 2 .8954 2 2s-.895 2-2 2h-13c-1.105 0-2-.8954-2-2z" opacity=".75"/></g></g><path clip-rule="evenodd" d="m167 117c-3.866 0-7-3.134-7-7v-8h-62c-3.3137 0-6 2.686-6 6v2c0 7.732 6.268 14 14 14h54c7.732 0 14-6.268 14-14 0 3.866-3.134 7-7 7z" fill="url(#f)" fill-rule="evenodd"/><path d="m174 41c0-3.866 3.134-7 7-7s7 3.134 7 7v13c0 3.3137-2.686 6-6 6h-8z" fill="#d7e0e7"/><circle cx="177" cy="106" fill="url(#g)" r="25"/><path d="m165.849 104.733 6.496 5.679 16.172-16.3487s1.086-1.0882 2.033-.2397c.283.2574.607.9799-.126 2.1134l-16.886 21.705s-1.296 1.945-2.833-.022l-7.283-10.797s-.866-1.46.216-2.337c.365-.294 1.193-.752 2.211.247h.001z" fill="#fff"/><path clip-rule="evenodd" d="m75 19.5c0 .1777-.0062.3541-.0183.5287 1.982.2379 3.5183 1.9252 3.5183 3.9713 0 2.2091-1.7909 4-4 4h-16c-3.0376 0-5.5-2.4624-5.5-5.5s2.4624-5.5 5.5-5.5c.6396 0 1.2538.1092 1.8248.31.937-3.0738 3.795-5.31 7.1752-5.31 4.1421 0 7.5 3.3579 7.5 7.5z" fill="url(#h)" fill-rule="evenodd" opacity=".75"/><path clip-rule="evenodd" d="m136 9.5c0 .20028-.006.39911-.018.5963 2.291.4561 4.018 2.4782 4.018 4.9037 0 2.7614-2.239 5-5 5h-20c-3.866 0-7-3.134-7-7 0-3.86599 3.134-7 7-7 .88 0 1.722.1623 2.497.45859 1.268-3.75506 4.82-6.45859 9.003-6.45859 5.247 0 9.5 4.25329 9.5 9.5z" fill="url(#i)" fill-rule="evenodd" opacity=".75"/></svg>

<svg width="280" height="150" viewBox="0 0 280 150" fill="none" xmlns="http://www.w3.org/2000/svg">
    <mask id="mask0_116_370" style="mask-type:alpha" maskUnits="userSpaceOnUse" x="0" y="0" width="280" height="150">
        <rect width="280" height="150" fill="white"/>
    </mask>
    <g mask="url(#mask0_116_370)"/>
    <path fill-rule="evenodd" clip-rule="evenodd"
          d="M213.798 86.2703C215.457 80.1185 221.958 78.0874 221.958 78.0874C221.958 78.0874 218.705 86.7251 220.824 89.5811C222.943 92.4372 223.313 95.2868 222.668 98.5646C222.022 101.843 216.062 106.457 216.062 106.457C224.585 110.014 212.061 122.394 212.061 122.394C212.061 122.394 208.396 122.608 204.157 122.366C204.626 119.905 205.515 116.172 207.199 110.989C210.637 100.408 214.146 93.7722 214.146 93.7722C214.146 93.7722 202.129 111.082 199.042 121.821C194.66 121.082 190.985 119.558 191.508 116.491C192.437 111.037 194.883 109.382 197.779 107.423C198.695 106.803 199.656 106.152 200.629 105.341C203.018 103.349 202.936 100.873 202.858 98.5383C202.805 96.9191 202.753 95.3673 203.529 94.0906C204.287 92.8446 205.814 92.328 207.48 91.7642C209.984 90.9172 212.802 89.9638 213.798 86.2703Z"
          fill="url(#paint0_linear_116_370)"/>
    <path fill-rule="evenodd" clip-rule="evenodd"
          d="M60.7585 122.393C60.7585 122.393 49.9066 122.393 46.7683 112.685C43.63 102.978 46.0054 102.978 46.7683 102.978C47.5312 102.978 54.0802 113.371 56.0335 112.685C57.9868 112 50.8519 99.0879 50.8519 89.6058C50.8519 80.1237 54.6266 74.0135 58.7053 73.1673C62.784 72.3211 68.6716 76.9052 68.6716 91.0783C68.6716 99.8487 70.5708 100.811 71.9035 99.9192C73.4503 98.8835 75.5115 86.8363 80.7273 86.8363C87.5939 86.8363 93.4955 97.3624 91.0826 114.786C89.4225 118.523 60.7585 122.393 60.7585 122.393Z"
          fill="url(#paint1_linear_116_370)"/>
    <path fill-rule="evenodd" clip-rule="evenodd"
          d="M240.526 101.568C238.218 100.238 235.698 100.326 231.919 102.686C228.141 105.046 221.738 111.082 218.126 123.396L233.263 127.781C233.263 127.781 235.988 120.608 240.526 114.585C245.065 108.561 242.835 102.899 240.526 101.568Z"
          fill="url(#paint2_linear_116_370)"/>
    <ellipse cx="140" cy="179" rx="156" ry="67" fill="url(#paint3_linear_116_370)"/>
    <path fill-rule="evenodd" clip-rule="evenodd"
          d="M120 26C112.268 26 106 32.268 106 40V124H160C167.732 124 174 117.732 174 110V43C174 39.134 177.134 36 181 36C184.866 36 188 39.134 188 43V40C188 32.268 181.732 26 174 26H120Z"
          fill="#F4F8FC"/>
    <mask id="mask1_116_370" style="mask-type:alpha" maskUnits="userSpaceOnUse" x="106" y="26" width="82" height="98">
        <path fill-rule="evenodd" clip-rule="evenodd"
              d="M120 26C112.268 26 106 32.268 106 40V124H160C167.732 124 174 117.732 174 110V43C174 39.134 177.134 36 181 36C184.866 36 188 39.134 188 43V40C188 32.268 181.732 26 174 26H120Z"
              fill="white"/>
    </mask>
    <g mask="url(#mask1_116_370)">
        <path fill-rule="evenodd" clip-rule="evenodd"
              d="M132 47C132 45.8954 132.895 45 134 45H163C164.105 45 165 45.8954 165 47C165 48.1046 164.105 49 163 49H134C132.895 49 132 48.1046 132 47Z"
              fill="#E0E9F2"/>
        <circle cx="120" cy="47" r="5" fill="#E0E9F2"/>
        <circle cx="120" cy="65" r="5" fill="#E0E9F2"/>
        <circle opacity="0.75" cx="120" cy="83" r="5" fill="#E0E9F2"/>
        <path fill-rule="evenodd" clip-rule="evenodd"
              d="M132 65C132 63.8954 132.895 63 134 63H163C164.105 63 165 63.8954 165 65C165 66.1046 164.105 67 163 67H134C132.895 67 132 66.1046 132 65Z"
              fill="#E0E9F2"/>
        <path opacity="0.75" fill-rule="evenodd" clip-rule="evenodd"
              d="M132 83C132 81.8954 132.895 81 134 81H147C148.105 81 149 81.8954 149 83C149 84.1046 148.105 85 147 85H134C132.895 85 132 84.1046 132 83Z"
              fill="#E0E9F2"/>
    </g>
    <path fill-rule="evenodd" clip-rule="evenodd"
          d="M167 117C163.134 117 160 113.866 160 110V102H98C94.6863 102 92 104.686 92 108V110C92 117.732 98.268 124 106 124H160C167.732 124 174 117.732 174 110C174 113.866 170.866 117 167 117Z"
          fill="url(#paint4_linear_116_370)"/>
    <path d="M174 41C174 37.134 177.134 34 181 34C184.866 34 188 37.134 188 41V54C188 57.3137 185.314 60 182 60H174V41Z"
          fill="#D7E0E7"/>
    <circle cx="177" cy="106" r="25" fill="url(#paint5_linear_116_370)"/>
    <path d="M165.849 104.733L172.345 110.412L188.517 94.0633C188.517 94.0633 189.603 92.9751 190.55 93.8236C190.833 94.081 191.157 94.8035 190.424 95.937L173.538 117.642C173.538 117.642 172.242 119.587 170.705 117.62L163.422 106.823C163.422 106.823 162.556 105.363 163.638 104.486C164.003 104.192 164.831 103.734 165.849 104.733H165.85H165.849Z"
          fill="white"/>
    <path opacity="0.75" fill-rule="evenodd" clip-rule="evenodd"
          d="M75 19.5C75 19.6777 74.9938 19.8541 74.9817 20.0287C76.9637 20.2666 78.5 21.9539 78.5 24C78.5 26.2091 76.7091 28 74.5 28H58.5C55.4624 28 53 25.5376 53 22.5C53 19.4624 55.4624 17 58.5 17C59.1396 17 59.7538 17.1092 60.3248 17.31C61.2618 14.2362 64.1198 12 67.5 12C71.6421 12 75 15.3579 75 19.5Z"
          fill="url(#paint6_linear_116_370)"/>
    <path opacity="0.75" fill-rule="evenodd" clip-rule="evenodd"
          d="M136 9.5C136 9.70028 135.994 9.89911 135.982 10.0963C138.273 10.5524 140 12.5745 140 15C140 17.7614 137.761 20 135 20H115C111.134 20 108 16.866 108 13C108 9.13401 111.134 6 115 6C115.88 6 116.722 6.1623 117.497 6.45859C118.765 2.70353 122.317 0 126.5 0C131.747 0 136 4.25329 136 9.5Z"
          fill="url(#paint7_linear_116_370)"/>
    <defs>
        <linearGradient id="paint0_linear_116_370" x1="203.698" y1="104.635" x2="199.37" y2="120.319"
                        gradientUnits="userSpaceOnUse">
            <stop stop-color="#DFE7EE"/>
            <stop offset="1" stop-color="#EFF4F9" stop-opacity="0.01"/>
        </linearGradient>
        <linearGradient id="paint1_linear_116_370" x1="46.6092" y1="99.3416" x2="62.7397" y2="129.404"
                        gradientUnits="userSpaceOnUse">
            <stop stop-color="#DFE7EE"/>
            <stop offset="1" stop-color="#EFF4F9" stop-opacity="0.01"/>
        </linearGradient>
        <linearGradient id="paint2_linear_116_370" x1="226.115" y1="103.687" x2="216.053" y2="122.341"
                        gradientUnits="userSpaceOnUse">
            <stop stop-color="#DFE7EE"/>
            <stop offset="1" stop-color="#EFF4F9" stop-opacity="0.01"/>
        </linearGradient>
        <linearGradient id="paint3_linear_116_370" x1="96.8283" y1="112" x2="96.8283" y2="149.083"
                        gradientUnits="userSpaceOnUse">
            <stop stop-color="#DFE7EE"/>
            <stop offset="1" stop-color="#EFF4F9" stop-opacity="0.01"/>
        </linearGradient>
        <linearGradient id="paint4_linear_116_370" x1="112.5" y1="113" x2="112.5" y2="124"
                        gradientUnits="userSpaceOnUse">
            <stop stop-color="#DFE7EE"/>
            <stop offset="1" stop-color="#DFE7EE"/>
        </linearGradient>
        <linearGradient id="paint5_linear_116_370" x1="146.721" y1="98.7065" x2="170.425" y2="127.743"
                        gradientUnits="userSpaceOnUse">
            <stop stop-color="#81E3BB"/>
            <stop offset="1" stop-color="#4AC285"/>
        </linearGradient>
        <linearGradient id="paint6_linear_116_370" x1="48.837" y1="12" x2="48.837" y2="33.2241"
                        gradientUnits="userSpaceOnUse">
            <stop stop-color="#DFE7EE"/>
            <stop offset="1" stop-color="#EFF4F9" stop-opacity="0.01"/>
        </linearGradient>
        <linearGradient id="paint7_linear_116_370" x1="103.804" y1="0" x2="103.804" y2="25.2455"
                        gradientUnits="userSpaceOnUse">
            <stop stop-color="#DFE7EE"/>
            <stop offset="1" stop-color="#EFF4F9" stop-opacity="0.01"/>
        </linearGradient>
    </defs>
</svg>
